dist/svg/add-group.svg

<!-- Generated by Trend Micro Style Portal -->
<svg version="1.1" xmlns="http://www.w3.org/2000/svg" width="16" height="16" viewBox="0 0 16 16">
  <title>add-group</title>
  <path fill="rgb(34,34,34)" d="M16 13h-3v3h-2v-3h-3v-2h3v-3h2v3h3zM0 7h13v-2h-13zM0 4h13v-2h-13zM0 10h10v-2h-10z"></path>
</svg>

<svg width="16" height="16" viewBox="0 0 16 16" fill="rgb(34, 34, 34)" xmlns="http://www.w3.org/2000/svg"><title>add-group</title><path d="M16 13H13V16H11V13H8V11H11V8H13V11H16V13ZM0 7H13V5H0V7ZM0 4H13V2H0V4ZM0 10H10V8H0V10Z" fill="rgb(34, 34, 34)" fill-opacity="1.00"/></svg>
